images/50564496.svg

<?xml version="1.0" encoding="UTF-8"?>
<svg xmlns="http://www.w3.org/2000/svg" xmlns:xlink="http://www.w3.org/1999/xlink" width="300pt" height="300pt" viewBox="0 0 300 300" version="1.1">
<defs>
<g>
<symbol overflow="visible" id="glyph0-0">
<path style="stroke:none;" d="M 0.453125 1.59375 L 0.453125 -6.34375 L 4.953125 -6.34375 L 4.953125 1.59375 Z M 0.953125 1.09375 L 4.453125 1.09375 L 4.453125 -5.84375 L 0.953125 -5.84375 Z M 0.953125 1.09375 "/>
</symbol>
<symbol overflow="visible" id="glyph0-1">
<path style="stroke:none;" d="M 0.890625 -6.5625 L 4.65625 -6.5625 L 4.65625 -5.8125 L 1.765625 -5.8125 L 1.765625 -3.875 L 4.375 -3.875 L 4.375 -3.140625 L 1.765625 -3.140625 L 1.765625 0 L 0.890625 0 Z M 0.890625 -6.5625 "/>
</symbol>
<symbol overflow="visible" id="glyph0-2">
<path style="stroke:none;" d="M 0.890625 -6.5625 L 2.078125 -6.5625 L 4.984375 -1.078125 L 4.984375 -6.5625 L 5.84375 -6.5625 L 5.84375 0 L 4.65625 0 L 1.75 -5.484375 L 1.75 0 L 0.890625 0 Z M 0.890625 -6.5625 "/>
</symbol>
<symbol overflow="visible" id="glyph0-3">
<path style="stroke:none;" d="M 0.890625 -6.5625 L 1.765625 -6.5625 L 1.765625 -3.875 L 5 -3.875 L 5 -6.5625 L 5.890625 -6.5625 L 5.890625 0 L 5 0 L 5 -3.125 L 1.765625 -3.125 L 1.765625 0 L 0.890625 0 Z M 0.890625 -6.5625 "/>
</symbol>
<symbol overflow="visible" id="glyph0-4">
<path style="stroke:none;" d="M 3.546875 -5.953125 C 2.898438 -5.953125 2.382812 -5.710938 2 -5.234375 C 1.625 -4.753906 1.4375 -4.101562 1.4375 -3.28125 C 1.4375 -2.445312 1.625 -1.789062 2 -1.3125 C 2.382812 -0.832031 2.898438 -0.59375 3.546875 -0.59375 C 4.191406 -0.59375 4.703125 -0.832031 5.078125 -1.3125 C 5.453125 -1.789062 5.640625 -2.445312 5.640625 -3.28125 C 5.640625 -4.101562 5.453125 -4.753906 5.078125 -5.234375 C 4.703125 -5.710938 4.191406 -5.953125 3.546875 -5.953125 Z M 3.546875 -6.6875 C 4.460938 -6.6875 5.195312 -6.375 5.75 -5.75 C 6.300781 -5.132812 6.578125 -4.3125 6.578125 -3.28125 C 6.578125 -2.238281 6.300781 -1.410156 5.75 -0.796875 C 5.195312 -0.179688 4.460938 0.125 3.546875 0.125 C 2.617188 0.125 1.878906 -0.179688 1.328125 -0.796875 C 0.773438 -1.410156 0.5 -2.238281 0.5 -3.28125 C 0.5 -4.3125 0.773438 -5.132812 1.328125 -5.75 C 1.878906 -6.375 2.617188 -6.6875 3.546875 -6.6875 Z M 3.546875 -6.6875 "/>
</symbol>
</g>
</defs>
<g id="surface20937">
<rect x="0" y="0" width="300" height="300" style="fill:rgb(100%,100%,100%);fill-opacity:1;stroke:none;"/>
<path style="fill:none;stroke-width:1.2;stroke-linecap:butt;stroke-linejoin:miter;stroke:rgb(20%,80%,80%);stroke-opacity:1;stroke-miterlimit:10;" d="M 112.871094 176.410156 L 103.101562 170.925781 "/>
<path style="fill:none;stroke-width:1.2;stroke-linecap:butt;stroke-linejoin:miter;stroke:rgb(0%,0%,0%);stroke-opacity:1;stroke-miterlimit:10;" d="M 103.101562 170.925781 L 93.328125 165.441406 "/>
<path style=" stroke:none;fill-rule:nonzero;fill:rgb(100%,100%,100%);fill-opacity:1;" d="M 109.871094 170.910156 L 115.871094 170.910156 L 115.871094 181.910156 L 109.871094 181.910156 Z M 109.871094 170.910156 "/>
<g style="fill:rgb(20%,80%,80%);fill-opacity:1;">
  <use xlink:href="#glyph0-1" x="109.871094" y="179.573242"/>
</g>
<path style="fill:none;stroke-width:1.2;stroke-linecap:butt;stroke-linejoin:miter;stroke:rgb(0%,0%,0%);stroke-opacity:1;stroke-miterlimit:10;" d="M 93.328125 165.441406 L 74.058594 176.875 "/>
<path style="fill:none;stroke-width:1.2;stroke-linecap:butt;stroke-linejoin:miter;stroke:rgb(0%,0%,0%);stroke-opacity:1;stroke-miterlimit:10;" d="M 88.710938 162.050781 L 73.296875 171.199219 "/>
<path style="fill:none;stroke-width:1.2;stroke-linecap:butt;stroke-linejoin:miter;stroke:rgb(0%,0%,0%);stroke-opacity:1;stroke-miterlimit:10;" d="M 93.058594 143.03125 L 93.328125 165.441406 "/>
<path style="fill:none;stroke-width:1.2;stroke-linecap:butt;stroke-linejoin:miter;stroke:rgb(0%,0%,0%);stroke-opacity:1;stroke-miterlimit:10;" d="M 74.058594 176.875 L 54.519531 165.90625 "/>
<path style="fill:none;stroke-width:1.2;stroke-linecap:butt;stroke-linejoin:miter;stroke:rgb(0%,0%,0%);stroke-opacity:1;stroke-miterlimit:10;" d="M 54.519531 165.90625 L 44.886719 171.625 "/>
<path style="fill:none;stroke-width:1.2;stroke-linecap:butt;stroke-linejoin:miter;stroke:rgb(20%,80%,80%);stroke-opacity:1;stroke-miterlimit:10;" d="M 44.886719 171.625 L 35.25 177.34375 "/>
<path style="fill:none;stroke-width:1.2;stroke-linecap:butt;stroke-linejoin:miter;stroke:rgb(0%,0%,0%);stroke-opacity:1;stroke-miterlimit:10;" d="M 54.519531 165.90625 L 54.25 143.5 "/>
<path style="fill:none;stroke-width:1.2;stroke-linecap:butt;stroke-linejoin:miter;stroke:rgb(0%,0%,0%);stroke-opacity:1;stroke-miterlimit:10;" d="M 59.765625 163.601562 L 59.550781 145.675781 "/>
<path style=" stroke:none;fill-rule:nonzero;fill:rgb(100%,100%,100%);fill-opacity:1;" d="M 29.25 171.84375 L 35.25 171.84375 L 35.25 182.84375 L 29.25 182.84375 Z M 29.25 171.84375 "/>
<g style="fill:rgb(20%,80%,80%);fill-opacity:1;">
  <use xlink:href="#glyph0-1" x="29.25" y="180.506836"/>
</g>
<path style="fill:none;stroke-width:1.2;stroke-linecap:butt;stroke-linejoin:miter;stroke:rgb(0%,0%,0%);stroke-opacity:1;stroke-miterlimit:10;" d="M 54.25 143.5 L 73.519531 132.0625 "/>
<path style="fill:none;stroke-width:1.2;stroke-linecap:butt;stroke-linejoin:miter;stroke:rgb(0%,0%,0%);stroke-opacity:1;stroke-miterlimit:10;" d="M 73.519531 132.0625 L 93.058594 143.03125 "/>
<path style="fill:none;stroke-width:1.2;stroke-linecap:butt;stroke-linejoin:miter;stroke:rgb(0%,0%,0%);stroke-opacity:1;stroke-miterlimit:10;" d="M 72.894531 137.757812 L 88.523438 146.535156 "/>
<path style="fill:none;stroke-width:1.2;stroke-linecap:butt;stroke-linejoin:miter;stroke:rgb(0%,0%,0%);stroke-opacity:1;stroke-miterlimit:10;" d="M 93.058594 143.03125 L 102.695312 137.3125 "/>
<path style="fill:none;stroke-width:1.2;stroke-linecap:butt;stroke-linejoin:miter;stroke:rgb(0%,0%,100%);stroke-opacity:1;stroke-miterlimit:10;" d="M 102.695312 137.3125 L 112.332031 131.597656 "/>
<path style="fill:none;stroke-width:1.2;stroke-linecap:butt;stroke-linejoin:miter;stroke:rgb(0%,0%,100%);stroke-opacity:1;stroke-miterlimit:10;" d="M 112.332031 131.597656 L 114.40625 109.285156 "/>
<path style="fill:none;stroke-width:1.2;stroke-linecap:butt;stroke-linejoin:miter;stroke:rgb(0%,0%,0%);stroke-opacity:1;stroke-miterlimit:10;" d="M 132.910156 140.464844 L 122.621094 136.03125 "/>
<path style="fill:none;stroke-width:1.2;stroke-linecap:butt;stroke-linejoin:miter;stroke:rgb(0%,0%,100%);stroke-opacity:1;stroke-miterlimit:10;" d="M 122.621094 136.03125 L 112.332031 131.597656 "/>
<path style=" stroke:none;fill-rule:nonzero;fill:rgb(100%,100%,100%);fill-opacity:1;" d="M 109.332031 126.097656 L 116.332031 126.097656 L 116.332031 137.097656 L 109.332031 137.097656 Z M 109.332031 126.097656 "/>
<g style="fill:rgb(0%,0%,100%);fill-opacity:1;">
  <use xlink:href="#glyph0-2" x="109.332031" y="134.760742"/>
</g>
<path style="fill:none;stroke-width:1.2;stroke-linecap:butt;stroke-linejoin:miter;stroke:rgb(0%,0%,100%);stroke-opacity:1;stroke-miterlimit:10;" d="M 114.40625 109.285156 L 125.335938 106.820312 "/>
<path style="fill:none;stroke-width:1.2;stroke-linecap:butt;stroke-linejoin:miter;stroke:rgb(0%,0%,0%);stroke-opacity:1;stroke-miterlimit:10;" d="M 125.335938 106.820312 L 136.265625 104.359375 "/>
<path style="fill:none;stroke-width:1.2;stroke-linecap:butt;stroke-linejoin:miter;stroke:rgb(0%,0%,100%);stroke-opacity:1;stroke-miterlimit:10;" d="M 117.75 113.933594 L 126.492188 111.964844 "/>
<path style="fill:none;stroke-width:1.2;stroke-linecap:butt;stroke-linejoin:miter;stroke:rgb(0%,0%,0%);stroke-opacity:1;stroke-miterlimit:10;" d="M 126.492188 111.964844 L 135.238281 109.996094 "/>
<path style=" stroke:none;fill-rule:nonzero;fill:rgb(100%,100%,100%);fill-opacity:1;" d="M 111.40625 103.785156 L 118.40625 103.785156 L 118.40625 114.785156 L 111.40625 114.785156 Z M 111.40625 103.785156 "/>
<g style="fill:rgb(0%,0%,100%);fill-opacity:1;">
  <use xlink:href="#glyph0-2" x="111.40625" y="112.448242"/>
</g>
<path style="fill:none;stroke-width:1.2;stroke-linecap:butt;stroke-linejoin:miter;stroke:rgb(0%,0%,0%);stroke-opacity:1;stroke-miterlimit:10;" d="M 136.265625 104.359375 L 147.703125 123.632812 "/>
<path style="fill:none;stroke-width:1.2;stroke-linecap:butt;stroke-linejoin:miter;stroke:rgb(0%,0%,0%);stroke-opacity:1;stroke-miterlimit:10;" d="M 147.703125 123.632812 L 132.910156 140.464844 "/>
<path style="fill:none;stroke-width:1.2;stroke-linecap:butt;stroke-linejoin:miter;stroke:rgb(0%,0%,0%);stroke-opacity:1;stroke-miterlimit:10;" d="M 150.183594 128.796875 L 138.351562 142.261719 "/>
<path style="fill:none;stroke-width:1.2;stroke-linecap:butt;stroke-linejoin:miter;stroke:rgb(0%,0%,0%);stroke-opacity:1;stroke-miterlimit:10;" d="M 169.675781 128.027344 L 147.703125 123.632812 "/>
<path style="fill:none;stroke-width:1.2;stroke-linecap:butt;stroke-linejoin:miter;stroke:rgb(0%,0%,0%);stroke-opacity:1;stroke-miterlimit:10;" d="M 132.910156 140.464844 L 140.089844 161.691406 "/>
<path style="fill:none;stroke-width:1.2;stroke-linecap:butt;stroke-linejoin:miter;stroke:rgb(0%,0%,0%);stroke-opacity:1;stroke-miterlimit:10;" d="M 140.089844 161.691406 L 151.078125 163.886719 "/>
<path style="fill:none;stroke-width:1.2;stroke-linecap:butt;stroke-linejoin:miter;stroke:rgb(0%,0%,100%);stroke-opacity:1;stroke-miterlimit:10;" d="M 151.078125 163.886719 L 162.0625 166.085938 "/>
<path style="fill:none;stroke-width:1.2;stroke-linecap:butt;stroke-linejoin:miter;stroke:rgb(0%,0%,0%);stroke-opacity:1;stroke-miterlimit:10;" d="M 143.320312 156.960938 L 152.109375 158.71875 "/>
<path style="fill:none;stroke-width:1.2;stroke-linecap:butt;stroke-linejoin:miter;stroke:rgb(0%,0%,100%);stroke-opacity:1;stroke-miterlimit:10;" d="M 152.109375 158.71875 L 160.902344 160.476562 "/>
<path style="fill:none;stroke-width:1.2;stroke-linecap:butt;stroke-linejoin:miter;stroke:rgb(0%,0%,100%);stroke-opacity:1;stroke-miterlimit:10;" d="M 162.0625 166.085938 L 176.855469 149.253906 "/>
<path style=" stroke:none;fill-rule:nonzero;fill:rgb(100%,100%,100%);fill-opacity:1;" d="M 159.0625 160.585938 L 166.0625 160.585938 L 166.0625 171.585938 L 159.0625 171.585938 Z M 159.0625 160.585938 "/>
<g style="fill:rgb(0%,0%,100%);fill-opacity:1;">
  <use xlink:href="#glyph0-2" x="159.0625" y="169.249023"/>
</g>
<path style="fill:none;stroke-width:1.2;stroke-linecap:butt;stroke-linejoin:miter;stroke:rgb(0%,0%,100%);stroke-opacity:1;stroke-miterlimit:10;" d="M 176.855469 149.253906 L 173.265625 138.640625 "/>
<path style="fill:none;stroke-width:1.2;stroke-linecap:butt;stroke-linejoin:miter;stroke:rgb(0%,0%,0%);stroke-opacity:1;stroke-miterlimit:10;" d="M 173.265625 138.640625 L 169.675781 128.027344 "/>
<path style="fill:none;stroke-width:1.2;stroke-linecap:butt;stroke-linejoin:miter;stroke:rgb(0%,0%,100%);stroke-opacity:1;stroke-miterlimit:10;" d="M 171.144531 148.820312 L 168.273438 140.328125 "/>
<path style="fill:none;stroke-width:1.2;stroke-linecap:butt;stroke-linejoin:miter;stroke:rgb(0%,0%,0%);stroke-opacity:1;stroke-miterlimit:10;" d="M 168.273438 140.328125 L 165.398438 131.839844 "/>
<path style=" stroke:none;fill-rule:nonzero;fill:rgb(100%,100%,100%);fill-opacity:1;" d="M 173.855469 143.753906 L 180.855469 143.753906 L 180.855469 154.753906 L 173.855469 154.753906 Z M 173.855469 143.753906 "/>
<g style="fill:rgb(0%,0%,100%);fill-opacity:1;">
  <use xlink:href="#glyph0-2" x="173.855469" y="152.416992"/>
</g>
<path style="fill:none;stroke-width:1.2;stroke-linecap:butt;stroke-linejoin:miter;stroke:rgb(0%,0%,0%);stroke-opacity:1;stroke-miterlimit:10;" d="M 169.675781 128.027344 L 177.074219 119.609375 "/>
<path style="fill:none;stroke-width:1.2;stroke-linecap:butt;stroke-linejoin:miter;stroke:rgb(0%,0%,100%);stroke-opacity:1;stroke-miterlimit:10;" d="M 177.074219 119.609375 L 184.46875 111.195312 "/>
<path style="fill:none;stroke-width:1.2;stroke-linecap:butt;stroke-linejoin:miter;stroke:rgb(0%,0%,100%);stroke-opacity:1;stroke-miterlimit:10;" d="M 184.46875 111.195312 L 195.457031 113.390625 "/>
<path style="fill:none;stroke-width:1.2;stroke-linecap:butt;stroke-linejoin:miter;stroke:rgb(0%,0%,0%);stroke-opacity:1;stroke-miterlimit:10;" d="M 195.457031 113.390625 L 206.441406 115.589844 "/>
<path style=" stroke:none;fill-rule:nonzero;fill:rgb(100%,100%,100%);fill-opacity:1;" d="M 177.46875 105.695312 L 191.46875 105.695312 L 191.46875 116.695312 L 177.46875 116.695312 Z M 177.46875 105.695312 "/>
<g style="fill:rgb(0%,0%,100%);fill-opacity:1;">
  <use xlink:href="#glyph0-2" x="177.46875" y="114.358398"/>
  <use xlink:href="#glyph0-3" x="184.446289" y="114.358398"/>
</g>
<path style="fill:none;stroke-width:1.2;stroke-linecap:butt;stroke-linejoin:miter;stroke:rgb(0%,0%,0%);stroke-opacity:1;stroke-miterlimit:10;" d="M 206.441406 115.589844 L 213.621094 136.816406 "/>
<path style="fill:none;stroke-width:1.2;stroke-linecap:butt;stroke-linejoin:miter;stroke:rgb(0%,0%,0%);stroke-opacity:1;stroke-miterlimit:10;" d="M 212.15625 116.023438 L 217.898438 133.003906 "/>
<path style="fill:none;stroke-width:1.2;stroke-linecap:butt;stroke-linejoin:miter;stroke:rgb(0%,0%,0%);stroke-opacity:1;stroke-miterlimit:10;" d="M 221.234375 98.757812 L 206.441406 115.589844 "/>
<path style="fill:none;stroke-width:1.2;stroke-linecap:butt;stroke-linejoin:miter;stroke:rgb(0%,0%,0%);stroke-opacity:1;stroke-miterlimit:10;" d="M 213.621094 136.816406 L 235.597656 141.210938 "/>
<path style="fill:none;stroke-width:1.2;stroke-linecap:butt;stroke-linejoin:miter;stroke:rgb(0%,0%,0%);stroke-opacity:1;stroke-miterlimit:10;" d="M 235.597656 141.210938 L 250.390625 124.378906 "/>
<path style="fill:none;stroke-width:1.2;stroke-linecap:butt;stroke-linejoin:miter;stroke:rgb(0%,0%,0%);stroke-opacity:1;stroke-miterlimit:10;" d="M 233.113281 136.046875 L 244.949219 122.582031 "/>
<path style="fill:none;stroke-width:1.2;stroke-linecap:butt;stroke-linejoin:miter;stroke:rgb(0%,0%,0%);stroke-opacity:1;stroke-miterlimit:10;" d="M 235.597656 141.210938 L 242.777344 162.4375 "/>
<path style="fill:none;stroke-width:1.2;stroke-linecap:butt;stroke-linejoin:miter;stroke:rgb(0%,0%,0%);stroke-opacity:1;stroke-miterlimit:10;" d="M 250.390625 124.378906 L 243.207031 103.152344 "/>
<path style="fill:none;stroke-width:1.2;stroke-linecap:butt;stroke-linejoin:miter;stroke:rgb(0%,0%,0%);stroke-opacity:1;stroke-miterlimit:10;" d="M 243.207031 103.152344 L 221.234375 98.757812 "/>
<path style="fill:none;stroke-width:1.2;stroke-linecap:butt;stroke-linejoin:miter;stroke:rgb(0%,0%,0%);stroke-opacity:1;stroke-miterlimit:10;" d="M 239.976562 107.882812 L 222.398438 104.367188 "/>
<path style="fill:none;stroke-width:1.2;stroke-linecap:butt;stroke-linejoin:miter;stroke:rgb(0%,0%,0%);stroke-opacity:1;stroke-miterlimit:10;" d="M 221.234375 98.757812 L 214.054688 77.53125 "/>
<path style="fill:none;stroke-width:1.2;stroke-linecap:butt;stroke-linejoin:miter;stroke:rgb(0%,0%,0%);stroke-opacity:1;stroke-miterlimit:10;" d="M 242.257812 165.023438 L 253.246094 167.21875 "/>
<path style="fill:none;stroke-width:1.2;stroke-linecap:butt;stroke-linejoin:miter;stroke:rgb(100%,0%,0%);stroke-opacity:1;stroke-miterlimit:10;" d="M 253.246094 167.21875 L 264.234375 169.417969 "/>
<path style="fill:none;stroke-width:1.2;stroke-linecap:butt;stroke-linejoin:miter;stroke:rgb(0%,0%,0%);stroke-opacity:1;stroke-miterlimit:10;" d="M 243.292969 159.851562 L 254.28125 162.050781 "/>
<path style="fill:none;stroke-width:1.2;stroke-linecap:butt;stroke-linejoin:miter;stroke:rgb(100%,0%,0%);stroke-opacity:1;stroke-miterlimit:10;" d="M 254.28125 162.050781 L 265.265625 164.246094 "/>
<path style="fill:none;stroke-width:1.2;stroke-linecap:butt;stroke-linejoin:miter;stroke:rgb(0%,0%,0%);stroke-opacity:1;stroke-miterlimit:10;" d="M 242.777344 162.4375 L 235.378906 170.855469 "/>
<path style="fill:none;stroke-width:1.2;stroke-linecap:butt;stroke-linejoin:miter;stroke:rgb(0%,0%,100%);stroke-opacity:1;stroke-miterlimit:10;" d="M 235.378906 170.855469 L 227.984375 179.269531 "/>
<path style=" stroke:none;fill-rule:nonzero;fill:rgb(100%,100%,100%);fill-opacity:1;" d="M 260.75 161.332031 L 268.75 161.332031 L 268.75 172.332031 L 260.75 172.332031 Z M 260.75 161.332031 "/>
<g style="fill:rgb(100%,0%,0%);fill-opacity:1;">
  <use xlink:href="#glyph0-4" x="260.75" y="169.995117"/>
</g>
<path style="fill:none;stroke-width:1.2;stroke-linecap:butt;stroke-linejoin:miter;stroke:rgb(0%,0%,100%);stroke-opacity:1;stroke-miterlimit:10;" d="M 227.984375 179.269531 L 231.574219 189.882812 "/>
<path style="fill:none;stroke-width:1.2;stroke-linecap:butt;stroke-linejoin:miter;stroke:rgb(0%,0%,0%);stroke-opacity:1;stroke-miterlimit:10;" d="M 231.574219 189.882812 L 235.164062 200.496094 "/>
<path style=" stroke:none;fill-rule:nonzero;fill:rgb(100%,100%,100%);fill-opacity:1;" d="M 220.984375 173.769531 L 234.984375 173.769531 L 234.984375 184.769531 L 220.984375 184.769531 Z M 220.984375 173.769531 "/>
<g style="fill:rgb(0%,0%,100%);fill-opacity:1;">
  <use xlink:href="#glyph0-2" x="220.984375" y="182.432617"/>
  <use xlink:href="#glyph0-3" x="227.961914" y="182.432617"/>
</g>
<path style="fill:none;stroke-width:1.2;stroke-linecap:butt;stroke-linejoin:miter;stroke:rgb(0%,0%,0%);stroke-opacity:1;stroke-miterlimit:10;" d="M 235.164062 200.496094 L 251.996094 215.289062 "/>
<path style="fill:none;stroke-width:1.2;stroke-linecap:butt;stroke-linejoin:miter;stroke:rgb(0%,0%,0%);stroke-opacity:1;stroke-miterlimit:10;" d="M 230.769531 222.46875 L 235.164062 200.496094 "/>
<path style="fill:none;stroke-width:1.2;stroke-linecap:butt;stroke-linejoin:miter;stroke:rgb(0%,0%,0%);stroke-opacity:1;stroke-miterlimit:10;" d="M 251.996094 215.289062 L 230.769531 222.46875 "/>
</g>
</svg>

<svg xmlns="http://www.w3.org/2000/svg" xmlns:xlink="http://www.w3.org/1999/xlink" width="300pt" height="300pt" viewBox="0 0 300 300"><defs><symbol overflow="visible"><path d="M.453 1.594v-7.938h4.5v7.938zm.5-.5h3.5v-6.938h-3.5zm0 0"/></symbol><symbol overflow="visible" id="a"><path d="M.89-6.563h3.766v.75h-2.89v1.938h2.61v.734h-2.61V0H.89zm0 0"/></symbol><symbol overflow="visible" id="b"><path d="M.89-6.563H2.08l2.906 5.485v-5.484h.86V0H4.656L1.75-5.484V0H.89zm0 0"/></symbol><symbol overflow="visible" id="c"><path d="M.89-6.563h.876v2.688H5v-2.688h.89V0H5v-3.125H1.766V0H.89zm0 0"/></symbol><symbol overflow="visible" id="d"><path d="M3.547-5.953c-.65 0-1.164.242-1.547.72-.375.48-.563 1.13-.563 1.952 0 .835.188 1.49.563 1.967.383.48.898.72 1.547.72.644 0 1.156-.24 1.53-.72.376-.476.564-1.132.564-1.968 0-.822-.187-1.474-.562-1.954-.375-.477-.887-.72-1.53-.72zm0-.734c.914 0 1.648.312 2.203.937.55.617.828 1.438.828 2.47 0 1.042-.277 1.87-.828 2.483-.555.617-1.29.922-2.203.922-.93 0-1.668-.305-2.22-.922C.774-1.41.5-2.237.5-3.28c0-1.033.273-1.853.828-2.47.55-.625 1.29-.938 2.22-.938zm0 0"/></symbol></defs><g><path fill="#fff" d="M0 0h300v300H0z"/><path d="M112.87 176.41l-9.768-5.484" stroke-width="1.2" stroke="#3cc" stroke-miterlimit="10" fill="none"/><path d="M103.102 170.926l-9.774-5.485" stroke-width="1.2" stroke="#000" stroke-miterlimit="10" fill="none"/><path d="M109.87 170.91h6v11h-6zm0 0" fill="#fff"/><use xlink:href="#a" x="109.871" y="179.573" fill="#3cc"/><path d="M93.328 165.44l-19.27 11.435M88.71 162.05l-15.413 9.15M93.06 143.03l.268 22.41M74.06 176.875l-19.54-10.97M54.52 165.906l-9.633 5.72" stroke-width="1.2" stroke="#000" stroke-miterlimit="10" fill="none"/><path d="M44.887 171.625l-9.637 5.72" stroke-width="1.2" stroke="#3cc" stroke-miterlimit="10" fill="none"/><path d="M54.52 165.906l-.27-22.406M59.766 163.602l-.215-17.926" stroke-width="1.2" stroke="#000" stroke-miterlimit="10" fill="none"/><path d="M29.25 171.844h6v11h-6zm0 0" fill="#fff"/><use xlink:href="#a" x="29.25" y="180.507" fill="#3cc"/><path d="M54.25 143.5l19.27-11.438M73.52 132.063l19.54 10.968M72.895 137.758l15.628 8.777M93.06 143.03l9.635-5.718" stroke-width="1.2" stroke="#000" stroke-miterlimit="10" fill="none"/><path d="M102.695 137.313l9.637-5.715M112.332 131.598l2.074-22.313" stroke-width="1.2" stroke="#00f" stroke-miterlimit="10" fill="none"/><path d="M132.91 140.465l-10.29-4.434" stroke-width="1.2" stroke="#000" stroke-miterlimit="10" fill="none"/><path d="M122.62 136.03l-10.288-4.432" stroke-width="1.2" stroke="#00f" stroke-miterlimit="10" fill="none"/><path d="M109.332 126.098h7v11h-7zm0 0" fill="#fff"/><use xlink:href="#b" x="109.332" y="134.761" fill="#00f"/><path d="M114.406 109.285l10.93-2.465" stroke-width="1.2" stroke="#00f" stroke-miterlimit="10" fill="none"/><path d="M125.336 106.82l10.93-2.46" stroke-width="1.2" stroke="#000" stroke-miterlimit="10" fill="none"/><path d="M117.75 113.934l8.742-1.97" stroke-width="1.2" stroke="#00f" stroke-miterlimit="10" fill="none"/><path d="M126.492 111.965l8.746-1.97" stroke-width="1.2" stroke="#000" stroke-miterlimit="10" fill="none"/><path d="M111.406 103.785h7v11h-7zm0 0" fill="#fff"/><use xlink:href="#b" x="111.406" y="112.448" fill="#00f"/><path d="M136.266 104.36l11.437 19.273M147.703 123.633l-14.793 16.832M150.184 128.797l-11.832 13.465M169.676 128.027l-21.973-4.394M132.91 140.465l7.18 21.226M140.09 161.69l10.988 2.197" stroke-width="1.2" stroke="#000" stroke-miterlimit="10" fill="none"/><path d="M151.078 163.887l10.984 2.2" stroke-width="1.2" stroke="#00f" stroke-miterlimit="10" fill="none"/><path d="M143.32 156.96l8.79 1.76" stroke-width="1.2" stroke="#000" stroke-miterlimit="10" fill="none"/><path d="M152.11 158.72l8.792 1.757M162.063 166.086l14.792-16.832" stroke-width="1.2" stroke="#00f" stroke-miterlimit="10" fill="none"/><path d="M159.063 160.586h7v11h-7zm0 0" fill="#fff"/><use xlink:href="#b" x="159.063" y="169.249" fill="#00f"/><path d="M176.855 149.254l-3.59-10.613" stroke-width="1.2" stroke="#00f" stroke-miterlimit="10" fill="none"/><path d="M173.266 138.64l-3.59-10.613" stroke-width="1.2" stroke="#000" stroke-miterlimit="10" fill="none"/><path d="M171.145 148.82l-2.872-8.492" stroke-width="1.2" stroke="#00f" stroke-miterlimit="10" fill="none"/><path d="M168.273 140.328l-2.875-8.488" stroke-width="1.2" stroke="#000" stroke-miterlimit="10" fill="none"/><path d="M173.855 143.754h7v11h-7zm0 0" fill="#fff"/><use xlink:href="#b" x="173.855" y="152.417" fill="#00f"/><path d="M169.676 128.027l7.398-8.418" stroke-width="1.2" stroke="#000" stroke-miterlimit="10" fill="none"/><path d="M177.074 119.61l7.395-8.415M184.47 111.195l10.987 2.196" stroke-width="1.2" stroke="#00f" stroke-miterlimit="10" fill="none"/><path d="M195.457 113.39l10.984 2.2" stroke-width="1.2" stroke="#000" stroke-miterlimit="10" fill="none"/><path d="M177.47 105.695h14v11h-14zm0 0" fill="#fff"/><g fill="#00f"><use xlink:href="#b" x="177.469" y="114.358"/><use xlink:href="#c" x="184.446" y="114.358"/></g><path d="M206.44 115.59l7.18 21.226M212.156 116.023l5.742 16.98M221.234 98.758L206.44 115.59M213.62 136.816l21.978 4.395M235.598 141.21l14.793-16.83M233.113 136.047l11.836-13.465M235.598 141.21l7.18 21.227M250.39 124.38l-7.183-21.228M243.207 103.152l-21.973-4.394M239.977 107.883l-17.58-3.516M221.234 98.758l-7.18-21.227M242.258 165.023l10.988 2.196" stroke-width="1.2" stroke="#000" stroke-miterlimit="10" fill="none"/><path d="M253.246 167.22l10.988 2.198" stroke-width="1.2" stroke="#f00" stroke-miterlimit="10" fill="none"/><path d="M243.293 159.852l10.988 2.2" stroke-width="1.2" stroke="#000" stroke-miterlimit="10" fill="none"/><path d="M254.28 162.05l10.986 2.196" stroke-width="1.2" stroke="#f00" stroke-miterlimit="10" fill="none"/><path d="M242.777 162.438l-7.398 8.417" stroke-width="1.2" stroke="#000" stroke-miterlimit="10" fill="none"/><path d="M235.38 170.855l-7.396 8.415" stroke-width="1.2" stroke="#00f" stroke-miterlimit="10" fill="none"/><path d="M260.75 161.332h8v11h-8zm0 0" fill="#fff"/><use xlink:href="#d" x="260.75" y="169.995" fill="#f00"/><path d="M227.984 179.27l3.59 10.613" stroke-width="1.2" stroke="#00f" stroke-miterlimit="10" fill="none"/><path d="M231.574 189.883l3.59 10.613" stroke-width="1.2" stroke="#000" stroke-miterlimit="10" fill="none"/><path d="M220.984 173.77h14v11h-14zm0 0" fill="#fff"/><g fill="#00f"><use xlink:href="#b" x="220.984" y="182.433"/><use xlink:href="#c" x="227.962" y="182.433"/></g><path d="M235.164 200.496l16.832 14.793M230.77 222.47l4.394-21.974M251.996 215.29l-21.226 7.18" stroke-width="1.2" stroke="#000" stroke-miterlimit="10" fill="none"/></g></svg>
